X: 28421
T: Mull Of The Woods
R: waltz
M: 3/4
K: Amixolydian
d2A|A>B A|f2 f|f<a f|e>f e|d2 e|f>e d|B>A G|
A>B A|A2 f/g/|a>g f|e2 d/e/|f>e d|B<d B|A3|1 A3:|2 A2B||
|:d>f d|B<d B|A>B d|f<a f|e>f e|f>e d|B>d B|B>A G|
A>B A|A2 f/g/|a>g f|e2 d/e/|f>e d|B<d B|A3|1 A2B:|2 A3||

